X:1
T:James Gibb editions
T:Domine in auxilium - Scarlatti
T:#
%%score [ 1 2 3 4 ]
L:1/8
Q:1/4=160
M:none
K:F
V:1 treble nm="Soprano" snm="S"
V:2 treble nm="Alto" snm="A"
V:3 treble-8 nm="Tenor" snm="T"
V:4 bass nm="Bass" snm="B"
V:1
"^Domine in auxilium meum""^Alessandro Scarlatti\n(1660-1725)""^Psalm 39:14b-15" z8 z4 z2 A2- | %1
w: Con\-|
 A2 F2 B4 A2 d4 d2 | e2 e2 e4 f4 f4- | f4 e4 d4 d4 | c2 A2 (d6 ^c=B c4 | d2 =c=B A2 B2 c4) B4 | %6
w: * fun- dan- tur et re-|ve- re- an- tur qui|* quae- runt a-|ni- mam me\- * * *|* * * * * * am.|
 z8 A6 A2 | A4 ^G2 G2 A6 A2 | =B8 c4 c4 | z8 d6 d2 | d4 ^c2 c2 d4 d2 e2 | f4 f4 e6 e2 | %12
w: Do- mi-|ne in au- xi- li-|um me- um,|Do- mi-|ne in au- xi- li- um|me- um re- spi-|
 d4 z2 d4 c2 f4 | (e6 dc d2 c2) =B4 | A4 d4 e2 E2 (A4- | A2 ^G^F G2 =B2) E8 | D8 z4 z2 A2- | %17
w: ce. Con- fun- dan-|tur * * * * qui|quae- runt a- ni- mam|* * * * * me-|am, con\-|
 A2 F2 B4 A2 d4 d2 | e2 e2 e4 f4 z4 | z2 A4 A2 =B2 B2 B4 | c2 G2 (c6 =BA B4 | c4) c4 z8 | %22
w: * fun- dan- tur et re-|ve- re- an- tur,|et re- ve- re- an-|tur qui quae\- * * *|* runt.|
 d6 d2 d4 ^c2 c2 | d4 d2 e2 (f6 e2) | f8 z8 | z4 f8 e4 | f2 d4 c2 B8 | G8 F4 G4 | A4 G4 A4 e4 | %29
w: Do- mi- ne in au-|xi- li- um me\- *|um,|qui quae-|runt a- ni- mam|me- am, qui|quae- runt a- ni-|
 c4 f4 e8 | z16 | z16 | A16- | A16 | A16 | F16- | F16 | B16 | A16 | d16 | d16 | e8 e8 | e16 | %43
w: mam me- am.|||Con\-|||fun\-||dan-|tur|et|re-|ve- re-|an-|
 f8 f8 | e16 | d16 | d16 | c16 | A16 | (d12 ^c2 =B2 | ^c8) d8 | d16 | d8- d2 d2 d4 | d16 | d16 | %55
w: tur qui|quae-|runt|a-|ni-|mam|me\- * *|* am|ut|a\- * u- fe-|rant|e-|
 d16- | d16 | d8- d2 d2 d4 | d16 | %59
w: am,||a\- * u- fe-|rant|
[Q:1/4=158] d16[Q:1/4=155][Q:1/4=153][Q:1/4=152][Q:1/4=149][Q:1/4=145] | %60
w: e-|
[Q:1/4=141] d16[Q:1/4=138][Q:1/4=136][Q:1/4=136] |] %61
w: am.|
V:2
 D6 D2 D4 ^C2 C2 | D4 D2 E2 F4 F4 | E6 E2 D8 | z4 z2 A4 F2 B4 | A8 z8 | A6 A2 A4 ^G2 G2 | %6
w: Do- mi- ne in au-|xi- li- um me- um|re- spi- ce.|Con- fun- dan-|tur.|Do- mi- ne in au-|
 A4 A2 =B2 c4 c4 | =B6 B2 A4 (A4- | A2 ^G^F G2) G2 A8 | z2 A4 F2 (B8 | A2 F2 E4) D8 | %11
w: xi- li- um me- um|re- spi- ce, re\-|* * * * spi- ce.|Con- fun- dan\-|* * * tur|
 z2 D4 D2 E2 E2 (E4- | F6 ED E4) D4 | z8 z4 E4 | C4 F4 E8 | z8 A6 A2 | A4 G2 G2 F4 E2 E2 | %17
w: et re- ve- re- an\-|* * * * tur,|con-|fun- dan- tur.|Do- mi-|ne in au- xi- li- um|
 F4 D4 z8 | z4 z2 A4 F2 (B4- | B2 AG A2 F2 D4) G4 | z8 z2 F4 F2 | G2 G2 G4 A4 z2 A2- | %22
w: me- um.|Con- fun- dan\-|* * * * * * tur|et re-|ve- re- an- tur, con\-|
 A2 G2 G4 A4 z4 | A4 F8 B4 | A8 z8 | z2 F4 F2 G2 G2 G4 | A8 D6 D2 | D4 ^C2 C2 D4 D2 E2 | (F12 E4 | %29
w: * fun- dan- tur,|con- fun- dan-|tur|et re- ve- re- an-|tur. Do- mi-|ne in au- xi- li- um|me\- *|
 A6 =B2 c4) c4 | =B6 B2 E4 (c4- | c2 =B2 A8) ^G4 | A8 z4 D4- | D2 C2 F4 E4 D2 E2 | F6 G2 A8 | %35
w: * * * um|re- spi- ce, re\-|* * * spi-|ce. Con\-|* fun- dan- tur et re-|ve- re- an-|
 A2 A4 F4 D2 F4- | F2 GA (B6 AG A2 F2 | G16) | F4 F4 E2 E2 A4 | (F4 B4 A4 B2 A2 | A8 =B8 | %41
w: tur qui quae- runt a\-|* ni- mam me\- * * * *||am ut au- fe- rant|e\- * * * *|* am,|
 z4 z2 A4 A2 =B2 B2 | c4 c2 c2 (=B8 | A6 G2 F2 E2 D4) | G2 G4 E2 A2 =B2) c4- | c4 B4 A8 | %46
w: et re- ve- re-|an- tur qui quae\-||runt a\- * * * ni\-|* mam me-|
 G2 (G4 D2 G2 A2) B4- | B4 A4 G8 | F8 z8 | z2 D4 D2 E2 E2 (E4- | E2 D2 E4 F4 G4) | A4 A4 B8 | %52
w: am, a\- * * * ni\-|* mam me-|am,|et re- ve- re- an\-||tur qui quae-|
 A8 B6 B2 | A4 A4 G8 | z4 D4 A6 A2 | B8 (A4 B2 A2 | G2 A2 B4) A8 | D8 A4 ^F4 | (D4 G6 ^F2 G2 B2 | %59
w: runt a- ni-|mam me- am|ut au- fe-|rant e\- * *|* * * am,|ut au- fe-|rant * * * *|
 A2 B4 AG A4) (G4- | G4 ^F2 E2) F8 |] %61
w: * * * * * e\-|* * * am.|
V:3
 z16 | z16 | z4 z2 A4 F2 B4 | A8 z8 | z2 d4 d2 e2 e2 e4 | f4 f4 e8 | c4 d4 c2 A2 (e2 fe | %7
w: ||Con- fun- dan-|tur,|et re- ve- re- an-|tur qui quae-|runt a- ni- mam me\- * *|
 d2 =B2 d4 e8) | d8 z2 e4 e2 | f4 d4 z8 | z4 z2 A4 F2 B4 | A4 z4 z4 A4 | F4 B4 A8 | %13
w: |am, con- fun-|dan- tur,|con- fun- dan-|tur, con-|fun- dan- tur.|
 A6 A2 A4 ^G2 G2 | A4 A2 =B2 c4 c4 | =B6 B2 A8 | d6 d2 d4 ^c2 c2 | d4 d2 e2 f4 f4 | %18
w: Do- mi- ne in au-|xi- li- um me- um|re- spi- ce.|Do- mi- ne in au-|xi- li- um me- um|
 e6 e2 d2 d4 B2 | (c3 B A2) d2 z2 d4 d2 | e2 e2 e4 f8 | z4 z2 c4 A2 d4 | B4 z2 d4 d2 e2 e2 | %23
w: re- spi- ce. Con- fun-|dan\- * * tur et re-|ve- re- an- tur,|con- fun- dan-|tur et re- ve- re-|
 (f3 e d2 c2 B2 A2 G4) | F4 f8 e4 | f4 d4 B2 B2 B4 | c2 A2 d6 d2 d4 | e8 A4 B4 | A4 (d8 c2 =B2 | %29
w: an\- * * * * * *|tur qui quae-|runt a- ni- mam me-|am ut au- fe- rant|e- am, ut|au- fe\- * *|
 A4) (d4 c4 A4) | E6 e4 c2 (f2 ed) | e8 d4 d4- | d2 c2 f4 e4 d2 f2 | (e4 d4 e4) A4 | %34
w: * rant, * *|ut au- fe- rant * *|e- am. Con\-|* fun- dan- tur, con- fun-|dan\- * * tur|
 d6 d2 e2 e2 e4 | f4 A4 F4 A4 | d6 d2 c8 | (B2 A2 G2 F2 G2 AB c4- | c4) A2 d4 c2 (f4- | %39
w: et re- ve- re- an-|tur qui quae- runt|a- ni- mam|me\- * * * * * * *|* am, con- fun- dan\-|
 f2 d2 g6 ^f2) g4 | d8 z4 g4 | e4 e2 e2 (A6 ^G2) | A8 z4 e4- | e4 (d6 c2 =B4) | c4 (e6 d2 c4 | %45
w: |tur et|re- ve- re- an\- *|tur qui|* quae\- * *|runt a\- * *|
 d6 B2 c2 B2 A4) | B2 A2 (d6 c2 B2 A2 | G4 F2 A2 B2 A2 G4) | c4 c4 f6 e2 | d8 B4 A4 | %50
w: |ni- mam me\- * * *||am ut au- fe-|rant e- am.|
 z4 z2 A4 F2 B4 | A4 z4 d4 (g4- | g2 ^fe f4) g4 G2 G2 | A2 A2 A4 B4 d4- | d4 (g8 ^f4) | %55
w: Con- fun- dan-|tur, qui quae\-|* * * * runt, et re-|ve- re- an- tur qui|* quae\- *|
 g4 (G6 ^F2 G2 A2 | B2 c2 d2) G4 (^FE) F4 | G4 B4 d6 d2 | A2 (d4 B2 A4 B2 G2 | %59
w: runt a\- * * *|* * * ni- mam * me-|am ut au- fe-|rant e\- * * * *|
 ^F2 G2 B2 d4 c2 B4) | A16 |] %61
w: |am.|
V:4
 z16 | z16 | z8 D,6 D,2 | D,4 ^C,2 C,2 D,4 E,2 F,2 | F,4 F,4 E,6 E,2 | D,8 z8 | z8 z2 A,4 A,2 | %7
w: ||Do- mi-|ne in au- xi- li- um|me- um re- spi-|ce.|Et re-|
 =B,2 B,2 B,4 C4 C4 | =B,8 A,4 A,4- | A,2 F,4 (_B,4 A,2) G,4 | (F,2 D,2) A,,4 D,4 G,4 | %11
w: ve- re- an- tur qui|quae- runt, con\-|* fun- dan\- * tur|qui * quae- runt a-|
 F,2 D,2 (D6 ^C=B,) C4 | D8 z4 D,4- | D,2 C,2 (F,6 E,D, E,4 | F,4) D,4 z2 A,,4 A,,2 | %15
w: ni- mam me\- * * *|am, con\-|* fun- dan\- * * *|* tur et re-|
 =B,,2 B,,2 B,,4 C,4 C4 | =B,8 A,8 | z4 G,4 F,4 D,2 (D2- | D2 C=B, C2 A,2 F,2 _B,2 G,3 F, | %19
w: ve- re- an- tur qui|quae- runt|a- ni- mam me\-||
 E,2 F,4 D,2 G,8 | C,2 C,4 C,2 D,2 D,2 D,4 | E,2 E,4 E,2 F,2 F,2 ^F,4 | G,4 G,4 =F,4 E,4) | %23
w: |am, et re- ve- re- an-|tur, et re- ve- re- an-|tur qui quae\- *|
 D,8 z8 | z2 F,4 F,2 G,2 G,2 G,4 | A,4 B,4 G,8 | F,2 F,4 F,2 G,8 | E,8 D,2 D,2 G,3 G, | %28
w: runt,|et re- ve- re- an-|tur qui quae-|runt a- ni- mam|me- am ut au- fe-|
 F,4 B,4 A,8 | z8 A,6 A,2 | A,4 ^G,2 G,2 A,4 A,2 =B,2 | C4 C4 =B,6 B,2 | A,4 D,6 C,2 (F,2 D,2 | %33
w: rant e- am.|Do- mi-|ne in au- xi- li- um|me- um re- spi-|ce. Con- fun- dan\- *|
 A,4) D,2 D,4 C,2 (F,4- | F,2 E,2 D,8 ^C,4) | D,8 D,8 | D,8 F,8- | F,4 (E,2 D,2) E,8 | %38
w: * tur, con- fun- dan\-||tur et|re- ve\-|* re\- * an-|
 F,2 F,4 D,2 A,8 | B,2 B,4 G,2 (D4 G,4- | G,4 ^F,4) G,2 =B,4 G,2 | (C8- C2 C,2 E,4) | %42
w: tur, con- fun- dan-|tur, con- fun- dan\- *|* * tur, con- fun-|dan\- * * *|
 A,,4 A,6 G,2 G,2 G,2 | (F,6 E,2 D,8) | C,4 C4 (A,6 G,2 | ^F,2 D,2 G,8 F,4) | G,4 B,4 (G,6 =F,2 | %47
w: tur et re- ve- re-|an\- * *|tur qui quae\- *||runt, qui quae\- *|
 E,2 C,2 F,8 E,4) | F,4 A,6 G,2 F,4 | B,6 A,2 G,4 (A,4- | A,4 A,,4) D,2 D,2 G,4- | %51
w: |runt a- ni- mam,|a- ni- mam me\-|* * am ut au\-|
 G,2 G,2 ^F,4 (G,2 A,2 B,2 C2 | D8) G,2 G,4 G,2 | G,4 ^F,2 F,2 G,4 G,2 A,2 | B,6 C2 D6 D2 | %55
w: * fe- rant e\- * * *|* am. Do- mi-|ne in au- xi- li- um|me- um re- spi-|
 G,2 B,4 G,2 D4 G,4 | G,6 G,2 A,2 A,2 A,4 | B,4 G,4 ^F,4 D,2 D2- | D2 B,2 G,4 D,4 G,,4 | %59
w: ce. Con- fun- dan- tur|et re- ve- re- an-|tur qui quae- runt a\-|* ni- mam me- am|
 D,2 G,4 ^F,E, F,4 G,4 | D,16 |] %61
w: ut a- u- fe- rant e-|am.|

